X:4
T:No.4 The Shetland Fiddler
C:reel
M:4/4
L:1/8
K:D
d2 fd Adfd|defg afdf|e2 ge Bded|
cdef gece|d2 fd Adfd|defg afdf|
(3fga fd (3fga fd|[1Bgec d2 (3ABc:|[2Bgec d2 cd||
eAfA gAaA|faaf gfed|AEBE cEdE|
efed cABc|dAeA fAgA|faaf gfed|
(3fga fd (3fga fd|[1Bgec d2 cd:|[2Bgec d2 (3ABc||
